Papirus/64x64/places/folder-black-nextcloud.svg

<svg width="64" height="64" version="1.1" xmlns="http://www.w3.org/2000/svg">
 <defs>
  <style id="current-color-scheme" type="text/css">.ColorScheme-Text { color:#444444; } .ColorScheme-Highlight { color:#4285f4; }</style>
 </defs>
 <rect x="7" y="24" width="50" height="32" rx="2.5" ry="2.5" style="opacity:.2"/>
 <path d="m7 44.5c0 1.385 1.115 2.5 2.5 2.5h45c1.385 0 2.5-1.115 2.5-2.5v-27c0-1.385-1.115-2.5-2.5-2.5h-25.5v-2.5c0-1.385-1.115-2.5-2.5-2.5h-17c-1.385 0-2.5 1.115-2.5 2.5" style="fill:#3f3f3f"/>
 <rect x="7" y="22" width="50" height="32" rx="2.5" ry="2.5" style="opacity:.2"/>
 <rect x="10" y="18" width="44" height="20" rx="2.5" ry="2.5" style="fill:#dcdcdc"/>
 <rect x="7" y="23" width="50" height="32" rx="2.5" ry="2.5" style="fill:#4f4f4f"/>
 <path d="m9.5 10c-1.385 0-2.5 1.115-2.5 2.5v1c0-1.385 1.115-2.5 2.5-2.5h17c1.385 0 2.5 1.115 2.5 2.5v-1c0-1.385-1.115-2.5-2.5-2.5zm19.5 5v1h25.5c1.39 0 2.5 1.115 2.5 2.5v-1c0-1.385-1.11-2.5-2.5-2.5z" style="fill:#ffffff;opacity:.1"/>
 <path d="m32 31a8 8 0 0 0-8 8 8 8 0 0 0 8 8 8 8 0 0 0 8-8 8 8 0 0 0-8-8zm0 4a4 4 0 0 1 4 4 4 4 0 0 1-4 4 4 4 0 0 1-4-4 4 4 0 0 1 4-4z" style="fill:#c2c2c2"/>
 <path d="m18 33a6 6 0 0 0-6 6 6 6 0 0 0 6 6 6 6 0 0 0 6-6 6 6 0 0 0-6-6zm0 4a2 2 0 0 1 2 2 2 2 0 0 1-2 2 2 2 0 0 1-2-2 2 2 0 0 1 2-2z" style="fill:#c2c2c2"/>
 <path d="m46 33a6 6 0 0 0-6 6 6 6 0 0 0 6 6 6 6 0 0 0 6-6 6 6 0 0 0-6-6zm0 4a2 2 0 0 1 2 2 2 2 0 0 1-2 2 2 2 0 0 1-2-2 2 2 0 0 1 2-2z" style="fill:#c2c2c2"/>
</svg>

<svg xmlns="http://www.w3.org/2000/svg" width="64" height="64" version="1.1">
 <rect style="opacity:0.2" width="50" height="32" x="7" y="24" rx="2.5" ry="2.5"/>
 <path style="fill:#3f3f3f" d="m7 44.5c0 1.385 1.115 2.5 2.5 2.5h45c1.385 0 2.5-1.115 2.5-2.5v-27c0-1.385-1.115-2.5-2.5-2.5h-25.5v-2.5c0-1.385-1.115-2.5-2.5-2.5h-17c-1.385 0-2.5 1.115-2.5 2.5"/>
 <rect style="opacity:0.2" width="50" height="32" x="7" y="22" rx="2.5" ry="2.5"/>
 <rect style="fill:#dcdcdc" width="44" height="20" x="10" y="18" rx="2.5" ry="2.5"/>
 <rect style="fill:#4f4f4f" width="50" height="32" x="7" y="23" rx="2.5" ry="2.5"/>
 <path style="fill:#ffffff;opacity:0.1" d="m9.5 10c-1.385 0-2.5 1.115-2.5 2.5v1c0-1.385 1.115-2.5 2.5-2.5h17c1.385 0 2.5 1.115 2.5 2.5v-1c0-1.385-1.115-2.5-2.5-2.5zm19.5 5v1h25.5c1.39 0 2.5 1.115 2.5 2.5v-1c0-1.385-1.11-2.5-2.5-2.5z"/>
 <path style="fill:#c2c2c2" d="M 46,33 A 6,6 0 0 0 40,39 6,6 0 0 0 46,45 6,6 0 0 0 52,39 6,6 0 0 0 46,33 Z M 46,37 A 2,2 0 0 1 48,39 2,2 0 0 1 46,41 2,2 0 0 1 44,39 2,2 0 0 1 46,37 Z M 18,33 A 6,6 0 0 0 12,39 6,6 0 0 0 18,45 6,6 0 0 0 24,39 6,6 0 0 0 18,33 Z M 18,37 A 2,2 0 0 1 20,39 2,2 0 0 1 18,41 2,2 0 0 1 16,39 2,2 0 0 1 18,37 Z M 32,31 A 8,8 0 0 0 24,39 8,8 0 0 0 32,47 8,8 0 0 0 40,39 8,8 0 0 0 32,31 Z M 32,35 A 4,4 0 0 1 36,39 4,4 0 0 1 32,43 4,4 0 0 1 28,39 4,4 0 0 1 32,35 Z"/>
</svg>
